X:1
T:Frere Jacques
M:4/4
L:1/4
%%measurenb 1
K:C
| c d e c | c d e c | e f g2 | e f g2 | 
   g/2 a/2 g/2 f/2 e c | g/2 a/2 g/2 f/2 e c | c G c2 | c G c2 | C4 ||

